src/assets/outline/Security.svg

<svg width="24" height="24" viewBox="0 0 24 24"  xmlns="http://www.w3.org/2000/svg">
<path d="M11.9998 22.7498C11.7598 22.7498 11.5199 22.7198 11.2899 22.6498C6.09986 21.2198 2.33984 16.3698 2.33984 11.1098V6.71978C2.33984 5.59978 3.14985 4.38983 4.18985 3.95983L9.75986 1.6798C11.2099 1.0898 12.7998 1.0898 14.2398 1.6798L19.8098 3.95983C20.8498 4.38983 21.6599 5.59978 21.6599 6.71978V11.1098C21.6599 16.3598 17.8898 21.2098 12.7098 22.6498C12.4798 22.7198 12.2398 22.7498 11.9998 22.7498ZM11.9998 2.74981C11.4298 2.74981 10.8698 2.85983 10.3298 3.07983L4.75986 5.3598C4.27986 5.5598 3.83984 6.20979 3.83984 6.72979V11.1198C3.83984 15.7098 7.13985 19.9498 11.6898 21.2098C11.8898 21.2698 12.1098 21.2698 12.3098 21.2098C16.8598 19.9498 20.1599 15.7098 20.1599 11.1198V6.72979C20.1599 6.20979 19.7198 5.5598 19.2398 5.3598L13.6699 3.07983C13.1299 2.85983 12.5698 2.74981 11.9998 2.74981Z" />
</svg>

<?xml version="1.0" encoding="UTF-8"?>
<svg width="24" height="24" viewBox="0 0 24 24" xmlns="http://www.w3.org/2000/svg">
 <path d="m12 22.75c-0.24 0-0.4799-0.03-0.7099-0.1-5.19-1.43-8.9501-6.28-8.9501-11.54v-4.39c0-1.12 0.81001-2.33 1.85-2.76l5.57-2.28c1.45-0.59 3.0399-0.59 4.4799 0l5.57 2.28c1.04 0.43 1.8501 1.64 1.8501 2.76v4.39c0 5.25-3.7701 10.1-8.9501 11.54-0.23 0.07-0.47 0.1-0.71 0.1zm0-20c-0.57 0-1.13 0.11002-1.67 0.33002l-5.5699 2.28c-0.48 0.2-0.92002 0.84999-0.92002 1.37v4.39c0 4.59 3.3 8.83 7.85 10.09 0.2 0.06 0.42 0.06 0.62 0 4.55-1.26 7.8501-5.5 7.8501-10.09v-4.39c0-0.52-0.4401-1.17-0.9201-1.37l-5.5699-2.28c-0.54-0.22-1.1001-0.33002-1.6701-0.33002z"/>
</svg>
